/* XPM */
static char *ca08ead7f9a74e85fc502c7bbf5ba7e5Yp2srINiKEwFjxju[] = {
/* columns rows colors chars-per-pixel */
"64 64 5 1 ",
"  c None",
". c black",
"X c #000001",
"o c #1F51FF",
"O c white",
/* pixels */
"                                                                ",
"                                                                ",
"                                                                ",
"                                                                ",
"                                                                ",
"                                                                ",
"                                                                ",
"                                                                ",
"                                                                ",
"                                                                ",
"          ..............                ..............          ",
"          ..............                ..............          ",
"        ..oooooooooooooo..            ..oooooooooooooo..        ",
"        ..oooooooooooooo..            ..oooooooooooooo..        ",
"      ..oooooooooooooooooo..        ..oooooooooooooooooo..      ",
"      ..oooooooooooooooooo..        ..oooooooooooooooooo..      ",
"    ..ooooooOOoooooooooooooo..    ..oooooooooooooooooooooo..    ",
"    ..ooooooOOoooooooooooooo..    ..oooooooooooooooooooooo..    ",
"    ..ooooOOoooooooooooooooooo....oooooooooooooooooooooooo..    ",
"    ..ooooOOoooooooooooooooooo....oooooooooooooooooooooooo..    ",
"    ..ooooOOoooooooooooooooooooooooooooooooooooooooooooooo..    ",
"    ..ooooOOoooooooooooooooooooooooooooooooooooooooooooooo..    ",
"    ..oooooooooooooooooooooooooooooooooooooooooooooooooooo..    ",
"    ..oooooooooooooooooooooooooooooooooooooooooooooooooooo..    ",
"    ..oooooooooooooooooooooooooooooooooooooooooooooooooooo..    ",
"    ..oooooooooooooooooooooooooooooooooooooooooooooooooooo..    ",
"    ..oooooooooooooooooooooooooooooooooooooooooooooooooooo..    ",
"    ..oooooooooooooooooooooooooooooooooooooooooooooooooooo..    ",
"    ..oooooooooooooooooooooooooooooooooooooooooooooooooooo..    ",
"    ..oooooooooooooooooooooooooooooooooooooooooooooooooooo..    ",
"      ..oooooooooooooooooooooooooooooooooooooooooooooooo..      ",
"      ..oooooooooooooooooooooooooooooooooooooooooooooooo..      ",
"        ..oooooooooooooooooooooooooooooooooooooooooooo..        ",
"        ..oooooooooooooooooooooooooooooooooooooooooooo..        ",
"          ..oooooooooooooooooooooooooooooooooooooooo..          ",
"          ..oooooooooooooooooooooooooooooooooooooooo..          ",
"            ..oooooooooooooooooooooooooooooooooooo..            ",
"            ..oooooooooooooooooooooooooooooooooooo..            ",
"              ..oooooooooooooooooooooooooooooooo..              ",
"              ..oooooooooooooooooooooooooooooooo..              ",
"                ..oooooooooooooooooooooooooooo..                ",
"                ..oooooooooooooooooooooooooooo..                ",
"                  ..oooooooooooooooooooooooo..                  ",
"                  ..oooooooooooooooooooooooo..                  ",
"                    ..oooooooooooooooooooo..                    ",
"                    ..oooooooooooooooooooo..                    ",
"                      ..oooooooooooooooo..                      ",
"                      ..oooooooooooooooo..                      ",
"                        ..oooooooooooo..                        ",
"                        ..oooooooooooo..                        ",
"                          ..oooooooo..                          ",
"                          ..oooooooo..                          ",
"                            ..oooo..                            ",
"                            ..oooo..                            ",
"                              ....                              ",
"                              ....                              ",
"                                                                ",
"                                                                ",
"                                                                ",
"                                                                ",
"                                                                ",
"                                                                ",
"                                                                ",
"                                                                "
};
