/* XPM */
static char *b75f76c934af417eb4204c80fbf21e64vF86jmwUIriXxxrB[] = {
/* columns rows colors chars-per-pixel */
"32 32 31 1 ",
"  c None",
". c gray10",
"X c #2D291A",
"o c #2C2B1B",
"O c #2D2B1E",
"+ c #3A3319",
"@ c #39371B",
"# c #3A3622",
"$ c #FBDB01",
"% c #FDDC01",
"& c #FFDE00",
"* c #FDDD02",
"= c #FFDE02",
"- c #FFDF04",
"; c #FFDE0A",
": c #FFDF0C",
"> c #F8EF35",
", c #F9F035",
"< c #FBF135",
"1 c #F9F036",
"2 c #FBF236",
"3 c #FBF237",
"4 c #F9F038",
"5 c #FBF238",
"6 c #FBF23A",
"7 c #FBEB78",
"8 c #FDEC78",
"9 c #FDEC79",
"0 c #FFEE78",
"q c #FFEE79",
"w c #FFEE7A",
/* pixels */
"        ................        ",
"        ................        ",
"        ................        ",
"        ooooOOOOOOOOOOOO        ",
"    ...o2225888888888887O...    ",
"    ...o2335888888888888O...    ",
"    ...o2225888888888888O...    ",
"    ooo@2225888888888888#OOO    ",
"...o>2222222:;;;;;;:25558887O...",
"...o22222222========22258888O...",
"...o22222222========22258888O...",
"...o22222222-======-25558888O...",
"...o2222-==-2222332288885555o...",
"...o2222====2222332588885222o...",
"...o2222====2222333588885222o...",
"...o2222====2222333588885222o...",
"...o2222====2222222588885222o...",
"...o2222====2222222588885222o...",
"...o2222====2222222588885222o...",
"...o2222-==-2555555588885222o...",
"...o===-33228888888855552222o...",
"...o====33258888888853332222o...",
"...o====33358888888852332222o...",
"...o$===3333888888885233222>o...",
"    ooo+====;;;;;;;:2222@ooo    ",
"    ...o============2222o...    ",
"    ...o============2222o...    ",
"    ...o$===========222>o...    ",
"        oooooooooooooooo        ",
"        ................        ",
"        ................        ",
"        ................        "
};
