/* XPM */
static char *_0372428841b4296d52573f067773afc9KCol6obMAIQQq8v[] = {
/* columns rows colors chars-per-pixel */
"32 32 3 1 ",
"  c black",
". c gray98",
"X c white",
/* pixels */
"          XXXXXXXXXXXX          ",
"         XXXXXXXXXXXXXX         ",
"       XXXXXXXXXXXXXXXXXX       ",
"      XXXXX          XXXXX      ",
"     XXXXX            XXXXX     ",
"    XXXXX              XXXXX    ",
"   XXXXX                XXXXX   ",
"  XXXXX                  XXXXX  ",
"  XXXX                    XXXX  ",
" XXXX                      XXXX ",
"X.XX                        XX.X",
"XXX                          XXX",
"XXX                          XXX",
"XXX                          XXX",
"XXX                          XXX",
"XXX                          XXX",
"XXX                          XXX",
"XXX                          XXX",
"XXX                          XXX",
"XXX                          XXX",
"XXX                          XXX",
"XXXX                        XXXX",
" XXXX                      XXXX ",
"  XXXX                    XXXX  ",
"  XXXXX                  XXXXX  ",
"   XXXXX                XXXXX   ",
"    XXXXX              XXXXX    ",
"     XXXXX            XXXXX     ",
"      XXXXX          XXXXX      ",
"       XXXXXXXXXXXXXXXXXX       ",
"         XXXXXXXXXXXXXX         ",
"          XXXXXXXXXXXX          "
};
