/* XPM */
static char *a51b529c87504195f49d028d3738b3d9YzzVHG3XKhmSKePa[] = {
/* columns rows colors chars-per-pixel */
"32 32 12 1 ",
"  c None",
". c black",
"X c #550F0A",
"o c #9B1A0A",
"O c #EF3A0C",
"+ c white",
"@ c black",
"# c black",
"$ c #000001",
"% c #FF0001",
"& c #800001",
"* c orange",
/* pixels */
"                                ",
"                                ",
"                                ",
"                                ",
"                                ",
"     .......        .......     ",
"    .%%%%%%%.      .%%%%%%%.    ",
"   .%%%%%%%%%.    .%%%%%%%%%.   ",
"  .%%%+%%%%%%%.  .%%%%%%%%%%%.  ",
"  .%%+%%%%%%%%%..%%%%%%%%%%%%.  ",
"  .%%+%%%%%%%%%%%%%%%%%%%%%%%.  ",
"  .%%%%%%%%%%%%%%%%%%%%%%%%%%.  ",
"  .%%%%%%%%%%%%%%%%%%%%%%%%%%.  ",
"  .%%%%%%%%%%%%%%%%%%%%%%%%%%.  ",
"  $%%%%%%%%%%%%%%%%%%%%%%%%%%.  ",
"   .%%%%%%%%%%%%%%%%%%%%%%%%.   ",
"    .%%%%%%%%%%%%%%%%%%%%%%.    ",
"     .%%%%%%%%%%%%%%%%%%%%.     ",
"      .%%%%%%%%%%%%%%%%%%.      ",
"       .%%%%%%%%%%%%%%%%.       ",
"        .%%%%%%%%%%%%%%.        ",
"         .%%%%%%%%%%%%.         ",
"          .%%%%%%%%%%.          ",
"           .%%%%%%%%.           ",
"            .%%%%%%.            ",
"             .%%%%.             ",
"              .%%.              ",
"               ..               ",
"                                ",
"                                ",
"                                ",
"                                "
};
